X: 1
T: Copper Kettle, The
M: 6/8
L: 1/8
R: jig
K: Dmaj
|: A/c/ | dAG FDF | ABA FDB | ADF AdF | EFD EFA |
dAG FDA | BGB ABc | dfd eag | fdc d2 :|
f/g/ | afd Bcd | Acd FAd | DFA dAF | EFD Efg |
afd Bcd | Acd FAd | BGB AdF | DFE D2f/g/  |
afd Bcd | Acd FAd | DFA daf | efd efg |
afd Bef | gec Afe | dAF GFE | DFE D2 :|
